talent/images/logo.svg

<svg width="346" height="50" viewBox="0 0 346 50" fill="none" xmlns="http://www.w3.org/2000/svg">
<g id="Group 7 Copy">
<path id="Path" d="M130.816 8.19296H119.668C119.13 8.19296 118.62 8.085 118.142 7.87208C117.664 7.65915 117.247 7.36525 116.893 6.99639C116.536 6.62752 116.257 6.19267 116.052 5.69485C115.848 5.19702 115.744 4.66621 115.744 4.10541C115.744 3.53561 115.848 3.0048 116.052 2.50398C116.257 2.00615 116.539 1.57131 116.893 1.20244C117.247 0.833566 117.664 0.53967 118.142 0.326746C118.62 0.113821 119.13 0.00585938 119.668 0.00585938H130.816V1.17245H119.668C119.28 1.17245 118.914 1.25042 118.574 1.40636C118.234 1.56231 117.938 1.77223 117.682 2.03614C117.428 2.30005 117.227 2.60894 117.083 2.96581C116.936 3.31969 116.864 3.70055 116.864 4.10541C116.864 4.51027 116.936 4.89113 117.083 5.24501C117.23 5.59888 117.428 5.90777 117.682 6.17468C117.935 6.43858 118.232 6.64851 118.574 6.79846C118.914 6.9514 119.28 7.02637 119.668 7.02637H130.816V8.19296Z" fill="#252A32"/>
<path id="Path_2" d="M162.571 8.19303H151.424V7.02345H162.571C162.96 7.02345 163.326 6.94847 163.665 6.79553C164.005 6.64258 164.302 6.43565 164.558 6.17175C164.811 5.90784 165.013 5.59595 165.159 5.24208C165.306 4.8882 165.378 4.50734 165.378 4.10248C165.378 3.69762 165.306 3.31676 165.159 2.96288C165.013 2.60901 164.814 2.30012 164.558 2.03321C164.304 1.7693 164.008 1.55938 163.665 1.40343C163.326 1.24749 162.96 1.16952 162.571 1.16952H151.424V0.00292969H162.571C163.11 0.00292969 163.616 0.110891 164.097 0.323816C164.575 0.536741 164.992 0.830637 165.347 1.19951C165.701 1.56838 165.983 2.00322 166.187 2.50105C166.392 2.99887 166.495 3.53268 166.495 4.10248C166.495 4.66328 166.392 5.19409 166.187 5.69192C165.983 6.18974 165.701 6.62459 165.347 6.99346C164.992 7.36532 164.575 7.65622 164.097 7.86915C163.616 8.08507 163.11 8.19303 162.571 8.19303Z" fill="#252A32"/>
<path id="Shape" fill-rule="evenodd" clip-rule="evenodd" d="M210.385 1.16952H225.459V0.00292969H210.385V1.16952ZM210.385 8.19303H211.505V7.37132C211.505 6.99645 211.571 6.64858 211.706 6.32469C211.842 6.00381 212.026 5.71891 212.262 5.47299C212.498 5.22708 212.774 5.03515 213.088 4.8942C213.402 4.75325 213.739 4.68427 214.099 4.68427H225.459V3.51769H214.099C213.58 3.51769 213.1 3.61965 212.651 3.82058C212.201 4.02451 211.81 4.30041 211.473 4.65128C211.136 5.00216 210.868 5.41002 210.676 5.87785C210.483 6.34569 210.385 6.84351 210.385 7.37432V8.19303Z" fill="#252A32"/>
<path id="Shape_2" fill-rule="evenodd" clip-rule="evenodd" d="M195.696 8.1931H204.624C205.05 8.1931 205.45 8.10913 205.818 7.94119C206.19 7.77325 206.515 7.54233 206.794 7.25143C207.076 6.96054 207.295 6.62166 207.456 6.23479C207.618 5.84793 207.698 5.43408 207.698 4.99023V3.21486C207.698 2.77102 207.618 2.35417 207.456 1.9643C207.295 1.57444 207.074 1.23256 206.794 0.941667C206.515 0.647771 206.19 0.419851 205.818 0.251911C205.447 0.0839703 205.05 0 204.624 0H195.696C195.27 0 194.87 0.0839703 194.501 0.251911C194.13 0.419851 193.804 0.65077 193.525 0.941667C193.246 1.23556 193.024 1.57444 192.863 1.9643C192.702 2.35417 192.621 2.77102 192.621 3.21486V4.99023C192.621 5.43408 192.702 5.84793 192.863 6.23479C193.024 6.62166 193.246 6.96054 193.525 7.25143C193.804 7.54233 194.13 7.77325 194.501 7.94119C194.87 8.10913 195.27 8.1931 195.696 8.1931ZM194.939 1.33453C195.175 1.22357 195.425 1.16959 195.696 1.16959H204.624C204.891 1.16959 205.145 1.22657 205.381 1.33453C205.617 1.44249 205.824 1.58944 206.003 1.77237C206.181 1.95531 206.322 2.17123 206.423 2.42014C206.527 2.66906 206.576 2.93596 206.576 3.21486V4.99023C206.576 5.27213 206.524 5.53304 206.423 5.77895C206.322 6.02487 206.181 6.24079 206.003 6.42673C205.824 6.61266 205.617 6.75961 205.381 6.86457C205.145 6.97253 204.891 7.02351 204.624 7.02351H195.696C195.428 7.02351 195.175 6.96953 194.939 6.86457C194.703 6.75961 194.495 6.61266 194.317 6.42673C194.138 6.24079 193.997 6.02487 193.896 5.77895C193.796 5.53304 193.744 5.27213 193.744 4.99023V3.21486C193.744 2.93296 193.796 2.66906 193.896 2.42014C193.997 2.17123 194.138 1.95531 194.317 1.77237C194.495 1.58944 194.703 1.44249 194.939 1.33453Z" fill="#252A32"/>
<path id="Shape_3" fill-rule="evenodd" clip-rule="evenodd" d="M136.702 8.1931H145.629C146.056 8.1931 146.453 8.10913 146.824 7.94119C147.196 7.77325 147.521 7.54233 147.8 7.25143C148.082 6.96054 148.301 6.62166 148.462 6.23479C148.624 5.84793 148.704 5.43408 148.704 4.99023V3.21486C148.704 2.77102 148.624 2.35417 148.462 1.9643C148.301 1.57444 148.079 1.23256 147.8 0.941667C147.521 0.647771 147.196 0.419851 146.824 0.251911C146.453 0.0839703 146.056 0 145.629 0H136.702C136.276 0 135.878 0.0839703 135.507 0.251911C135.136 0.419851 134.81 0.65077 134.531 0.941667C134.249 1.23556 134.03 1.57444 133.869 1.9643C133.708 2.35417 133.627 2.77102 133.627 3.21486V4.99023C133.627 5.43408 133.708 5.84793 133.869 6.23479C134.03 6.62166 134.252 6.96054 134.531 7.25143C134.813 7.54233 135.136 7.77325 135.507 7.94119C135.878 8.10913 136.276 8.1931 136.702 8.1931ZM135.945 1.33453C136.181 1.22357 136.431 1.16959 136.702 1.16959H145.629C145.9 1.16959 146.151 1.22657 146.387 1.33453C146.623 1.44249 146.83 1.58944 147.008 1.77237C147.187 1.95531 147.328 2.17123 147.429 2.42014C147.53 2.66906 147.581 2.93596 147.581 3.21486V4.99023C147.581 5.27213 147.53 5.53304 147.429 5.77895C147.328 6.02487 147.187 6.24079 147.008 6.42673C146.83 6.61266 146.623 6.75961 146.387 6.86457C146.151 6.97253 145.897 7.02351 145.629 7.02351H136.702C136.434 7.02351 136.181 6.96953 135.945 6.86457C135.711 6.75961 135.501 6.61266 135.323 6.42673C135.144 6.24079 135.003 6.02487 134.902 5.77895C134.802 5.53304 134.75 5.27213 134.75 4.99023V3.21486C134.75 2.93296 134.802 2.66906 134.902 2.42014C135.003 2.17123 135.144 1.95531 135.323 1.77237C135.501 1.58944 135.708 1.44249 135.945 1.33453Z" fill="#252A32"/>
<path id="Path_3" d="M329.693 21.9766C328.118 21.9766 326.639 22.2405 325.26 22.8672C323.886 23.497 322.683 24.3187 321.658 25.3894C321.102 25.9681 320.613 26.5889 320.184 27.2757C319.752 26.5919 319.263 25.9532 318.71 25.3744C317.682 24.3037 316.479 23.5 315.105 22.8702C313.726 22.2405 312.247 21.9766 310.672 21.9766H294.809V25.8752H310.672C311.72 25.8752 312.713 26.0461 313.64 26.463C314.567 26.8828 315.376 27.4286 316.058 28.1454C316.749 28.8621 317.213 29.6898 317.61 30.6555C318.013 31.6211 318.131 32.6438 318.131 33.7354V49.2669H318.313H322.055H321.871V33.7384C321.871 32.6468 322.17 31.6122 322.573 30.6465C322.968 29.6808 323.567 28.8441 324.258 28.1274C324.943 27.4106 325.775 26.8828 326.702 26.463C327.629 26.0431 328.645 25.8752 329.696 25.8752H345.191V21.9766H329.693V21.9766Z" fill="#252A32"/>
<path id="Path_4" d="M34.8846 21.9766C33.3098 21.9766 31.83 22.2405 30.451 22.8672C29.0777 23.497 27.8743 24.3187 26.8494 25.3894C26.2937 25.9681 25.8043 26.5889 25.3753 27.2757C24.9435 26.5919 24.4541 25.9532 23.9013 25.3744C22.8735 24.3037 21.6701 23.5 20.2968 22.8702C18.9178 22.2405 17.438 21.9766 15.8632 21.9766H0V25.8752H15.8632C16.9111 25.8752 17.9044 26.0461 18.8314 26.463C19.7584 26.8828 20.5674 27.4286 21.2498 28.1454C21.9407 28.8621 22.4042 29.6898 22.8015 30.6555C23.2046 31.6211 23.3226 32.6438 23.3226 33.7354V49.2669H23.504H27.2467H27.0624V33.7384C27.0624 32.6468 27.3618 31.6122 27.7649 30.6465C28.1593 29.6808 28.7581 28.8441 29.4491 28.1274C30.1343 27.4106 30.9663 26.8828 31.8934 26.463C32.8204 26.0431 33.8367 25.8752 34.8875 25.8752H50.3822V21.9766H34.8846V21.9766Z" fill="#252A32"/>
<path id="Path_5" d="M106.128 49.3354H63.9886L67.3311 45.4278H97.9807L84.3833 28.7567C83.557 27.821 82.5926 27.0983 81.487 26.5884C80.3873 26.0786 79.2242 25.8207 77.9948 25.8207C76.7425 25.8207 75.5765 26.0786 74.4825 26.5884C73.3971 27.0983 72.4384 27.821 71.6121 28.7567L54.7816 49.3354H49.8672L68.7965 26.1356C69.997 24.8041 71.3933 23.7664 72.9825 23.0257C74.5717 22.285 76.2473 21.9131 77.9948 21.9131C79.7481 21.9131 81.4179 22.285 83.0129 23.0257C84.6021 23.7664 85.9984 24.8041 87.1989 26.1356L87.2335 26.2106L106.128 49.3354Z" fill="#252A32"/>
<path id="Path_6" d="M116 49.3355V21.9521H119.757V45.4278H166.405V49.3355H116Z" fill="#252A32"/>
<path id="Path_7" d="M285.922 49.3354H278.863C275.909 49.3354 273.073 48.7446 270.353 47.56C267.641 46.3754 265.254 44.681 263.198 42.4918L249.941 28.4058C249.192 27.5751 248.311 26.9303 247.295 26.4895C246.279 26.0486 245.219 25.8237 244.119 25.8237H238.413V49.3354H234.656V21.9131H244.119C245.72 21.9131 247.266 22.237 248.74 22.8877C250.217 23.5385 251.521 24.4682 252.647 25.6648L265.864 39.7508C267.569 41.5501 269.544 42.9476 271.801 43.9403C274.055 44.9329 276.407 45.4278 278.863 45.4278H282.125L282.053 21.9161H285.847L285.922 49.3354Z" fill="#252A32"/>
</g>
</svg>

<svg width="346" height="50" fill="none" xmlns="http://www.w3.org/2000/svg"><g fill="#252A32"><path d="M130.816 8.193h-11.148a3.714 3.714 0 01-1.526-.32 3.937 3.937 0 01-1.249-.877 4.086 4.086 0 01-.841-1.301 4.156 4.156 0 01-.308-1.59c0-.57.104-1.1.308-1.601a4.14 4.14 0 01.841-1.302 3.937 3.937 0 011.249-.875 3.712 3.712 0 011.526-.321h11.148v1.166h-11.148c-.388 0-.754.078-1.094.234a2.881 2.881 0 00-1.491 1.56 2.943 2.943 0 00-.219 1.14c0 .404.072.785.219 1.139a3 3 0 00.599.93c.253.264.55.474.892.623.34.153.706.228 1.094.228h11.148v1.167zm31.755 0h-11.147v-1.17h11.147c.389 0 .755-.075 1.094-.227.34-.153.637-.36.893-.624a2.97 2.97 0 00.82-2.07c0-.404-.072-.785-.219-1.14a2.879 2.879 0 00-1.494-1.56 2.59 2.59 0 00-1.094-.232h-11.147V.003h11.147a3.72 3.72 0 011.526.32c.478.214.895.508 1.25.877a4.164 4.164 0 011.148 2.903c0 .56-.103 1.091-.308 1.589a4.118 4.118 0 01-.84 1.301 3.905 3.905 0 01-1.25.876 3.675 3.675 0 01-1.526.324z"/><path fill-rule="evenodd" clip-rule="evenodd" d="M210.385 1.17h15.074V.003h-15.074V1.17zm0 7.023h1.12v-.822a2.689 2.689 0 011.583-2.477 2.44 2.44 0 011.011-.21h11.36V3.518h-11.36c-.519 0-.999.102-1.448.303-.45.204-.841.48-1.178.83a3.885 3.885 0 00-.797 1.227 3.882 3.882 0 00-.291 1.496v.819zm-14.689 0h8.928c.426 0 .826-.084 1.194-.252a3.219 3.219 0 001.638-1.706c.162-.387.242-.8.242-1.245V3.215c0-.444-.08-.86-.242-1.25a3.247 3.247 0 00-.662-1.023 3.07 3.07 0 00-.976-.69A2.858 2.858 0 00204.624 0h-8.928c-.426 0-.826.084-1.195.252a3.13 3.13 0 00-.976.69 3.3 3.3 0 00-.662 1.022c-.161.39-.242.807-.242 1.25V4.99c0 .444.081.858.242 1.245.161.387.383.726.662 1.016.279.291.605.522.976.69.369.168.769.252 1.195.252zm-.757-6.858c.236-.111.486-.165.757-.165h8.928c.267 0 .521.057.757.165a1.995 1.995 0 011.042 1.086c.104.248.153.515.153.794V4.99a2.05 2.05 0 01-.573 1.437 1.966 1.966 0 01-.622.438 1.8 1.8 0 01-.757.159h-8.928a1.83 1.83 0 01-.757-.16 1.955 1.955 0 01-.622-.437 2.047 2.047 0 01-.573-1.437V3.215c0-.282.052-.546.152-.795a2.034 2.034 0 011.043-1.085zm-58.237 6.858h8.927a2.86 2.86 0 001.195-.252 3.219 3.219 0 001.638-1.706c.162-.387.242-.8.242-1.245V3.215A3.265 3.265 0 00147.8.942a3.07 3.07 0 00-.976-.69A2.86 2.86 0 00145.629 0h-8.927c-.426 0-.824.084-1.195.252a3.13 3.13 0 00-.976.69 3.246 3.246 0 00-.662 1.022c-.161.39-.242.807-.242 1.25V4.99c0 .444.081.858.242 1.245.161.387.383.726.662 1.016.282.291.605.522.976.69.371.168.769.252 1.195.252zm-.757-6.858c.236-.111.486-.165.757-.165h8.927c.271 0 .522.057.758.165a2.03 2.03 0 011.194 1.88V4.99a2.049 2.049 0 01-1.194 1.875c-.236.108-.49.159-.758.159h-8.927a1.83 1.83 0 01-.757-.16 1.978 1.978 0 01-.622-.437 2.047 2.047 0 01-.573-1.437V3.215c0-.282.052-.546.152-.795a2.022 2.022 0 011.043-1.085z"/><path d="M329.693 21.977c-1.575 0-3.054.264-4.433.89-1.374.63-2.577 1.452-3.602 2.522-.556.58-1.045 1.2-1.474 1.887a12.09 12.09 0 00-1.474-1.902c-1.028-1.07-2.231-1.874-3.605-2.504-1.379-.63-2.858-.893-4.433-.893h-15.863v3.898h15.863c1.048 0 2.041.171 2.968.588.927.42 1.736.966 2.418 1.682.691.717 1.155 1.545 1.552 2.51.403.966.521 1.989.521 3.08v15.532h3.924-.184V33.738c0-1.091.299-2.126.702-3.091.395-.966.994-1.803 1.685-2.52.685-.716 1.517-1.244 2.444-1.664.927-.42 1.943-.588 2.994-.588h15.495v-3.898h-15.498zm-294.808 0c-1.575 0-3.055.264-4.434.89-1.373.63-2.577 1.452-3.602 2.522-.555.58-1.045 1.2-1.474 1.887a12.09 12.09 0 00-1.474-1.902c-1.027-1.07-2.23-1.874-3.604-2.504-1.38-.63-2.859-.893-4.434-.893H0v3.898h15.863c1.048 0 2.041.171 2.968.588.927.42 1.736.966 2.419 1.682.69.717 1.154 1.545 1.552 2.51.403.966.52 1.989.52 3.08v15.532h3.925-.185V33.738c0-1.091.3-2.126.703-3.091.394-.966.993-1.803 1.684-2.52.685-.716 1.517-1.244 2.444-1.664.927-.42 1.944-.588 2.995-.588h15.494v-3.898H34.885zm71.243 27.358h-42.14l3.343-3.907h30.65L84.383 28.757a8.68 8.68 0 00-2.896-2.169 8.204 8.204 0 00-3.492-.767 8.2 8.2 0 00-3.513.767 8.79 8.79 0 00-2.87 2.169l-16.83 20.578h-4.915l18.93-23.2a12.97 12.97 0 014.186-3.11 11.743 11.743 0 015.012-1.112c1.753 0 3.423.372 5.018 1.113a12.97 12.97 0 014.186 3.11l.035.075 18.894 23.124zm9.872.001V21.952h3.757v23.476h46.648v3.908H116zm169.922-.001h-7.059c-2.954 0-5.79-.59-8.51-1.775a21.607 21.607 0 01-7.155-5.068l-13.257-14.086a7.62 7.62 0 00-2.646-1.916 7.906 7.906 0 00-3.176-.666h-5.706v23.511h-3.757V21.913h9.463c1.601 0 3.147.324 4.621.975 1.477.65 2.781 1.58 3.907 2.777l13.217 14.086a18.192 18.192 0 005.937 4.19 17.33 17.33 0 007.062 1.487h3.262l-.072-23.512h3.794l.075 27.42z"/></g></svg>
